X:1
T:[ID 2-4]
T:[ID 2-4]
T:Bezeichnung standardisiert: Menuet [mit Trio] Menuet Con Trio Violino Primo
T:Urheber unbekannt Erstbeleg: 1776-1791 (Datum in der schriftlichen Quelle) Datum in der hier transkribierten schriftlichen Quelle: 1799
C:Urheber unbekannt
C:Erstbeleg: 1776-1791 (Datum in der schriftlichen Quelle)
C:Datum in der hier transkribierten schriftlichen Quelle: 1799
%%score 1 2
L:1/8
M:3/4
K:D
V:1 treble nm="Violino Primo"
V:2 treble nm="Secondo"
V:1
 d4 d'2 | (3c'ba a4 | g2 f2 e2 | fedc d2 | a4 d'2 | (3c'ba b4 | c'b c'2 b2 | a6 :: a2 Fagf | %9
 g2 Egfe | fagfed | cdec A2 | a2 Fagf | g2 Egfe | (3fga fdec |{c} d6 :| %16
[M:3/4]"^Trio" !fermata!d4 (3fed | a2 a2 a2 | d4 (3fed | d'2 d'2 d'2 | d4 (3fed | b2 b2 a2 | %22
 g2 bagf |{f} e6 :: ecAceg | fdAdfa | g2 bagf | edcB A2 | a4 b2 | ad'c'bag | (3fed Te4 | d6 :| %32
V:2
 !fermata!f4 f2 | (3edc c4 | e2 d2 c2 | dFGE F2 | f4 f2 | (3a^gf g4 | ad c2 B2 |{B} c6 :: f2 Dfed | %9
 e2 cedc | dfedcB | A2 E2 A2 | a2 F2 a2 | g2 E2 g2 | d2 AFGE |{E} F6 :|[M:3/4] d4 (3AGF | %17
 f2 f2 f2 | d4 (3AGF | f2 f2 f2 | d4 (3AGF | g2 g2 f2 | e2 gfed |{d} c6 :: c2 c2 e2 | e2 e2 d2 | %26
 c2 c2 d2 |{d} c6 | f4 g2 | fbagfe | d2 AFGE |{E} F6 :| %32

